icons/code-fill.svg

<svg viewBox="0 0 24 24" fill="currentColor" xmlns="http://www.w3.org/2000/svg"><path d="M23 12L15.9289 19.0711L14.5147 17.6569L20.1716 12L14.5147 6.34317L15.9289 4.92896L23 12ZM3.82843 12L9.48528 17.6569L8.07107 19.0711L1 12L8.07107 4.92896L9.48528 6.34317L3.82843 12Z"/></svg>

<svg xmlns="http://www.w3.org/2000/svg" viewBox="0 0 24 24">
    <g>
        <path fill="none" d="M0 0h24v24H0z"/>
        <path d="M23 12l-7.071 7.071-1.414-1.414L20.172 12l-5.657-5.657 1.414-1.414L23 12zM3.828 12l5.657 5.657-1.414 1.414L1 12l7.071-7.071 1.414 1.414L3.828 12z"/>
    </g>
</svg>
